dist/svg/arrow-left.svg

<svg width="16" height="16" viewBox="0 0 16 16" fill="rgb(34, 34, 34)" xmlns="http://www.w3.org/2000/svg"><title>arrow-left</title><path d="M15 9.01597H4.84198L8.13798 12.299L6.72598 13.715L2.00998 9.01597H2.00098V9.00697L1.00098 8.01097L6.70798 2.27197L8.12598 3.68197L4.80998 7.01697H15.001L15 9.01597Z" fill="rgb(34, 34, 34)" fill-opacity="1.00"/></svg>

<!-- Generated by Trend Micro Style Portal -->
<svg version="1.1" xmlns="http://www.w3.org/2000/svg" width="16" height="16" viewBox="0 0 16 16">
  <title>arrow-left</title>
  <path fill="rgb(34,34,34)" d="M15 9.016h-10.158l3.296 3.283-1.412 1.416-4.716-4.699h-0.009v-0.009l-1-0.996 5.707-5.739 1.418 1.41-3.316 3.335h10.191z"></path>
</svg>
